dist/assets/img/catalog-icon-09.svg

<svg width="28" height="21" fill="none" xmlns="http://www.w3.org/2000/svg"><path d="M24 5V3c0-1.7-1.3-3-3-3H7C5.3 0 4 1.3 4 3v2C1.8 5 0 6.8 0 9v10h2v2h1v-2h22v2h1v-2h2V9c0-2.2-1.8-4-4-4ZM5 3c0-1.1.9-2 2-2h14c1.1 0 2 .9 2 2v5H5V3Zm0 6h18v4H5V9ZM1 9c0-1.7 1.3-3 3-3v7H1V9Zm26 9H1v-4h26v4Zm0-5h-3V6c1.7 0 3 1.3 3 3v4ZM11 5h6V4h-6v1Z" fill="#72BF44"/></svg>

<svg width="28" height="21" viewBox="0 0 28 21" fill="none" xmlns="http://www.w3.org/2000/svg">
<path d="M24 5V3C24 1.3 22.7 0 21 0H7C5.3 0 4 1.3 4 3V5C1.8 5 0 6.8 0 9V19H2V21H3V19H25V21H26V19H28V9C28 6.8 26.2 5 24 5ZM5 3C5 1.9 5.9 1 7 1H21C22.1 1 23 1.9 23 3V8H5V3ZM5 9H23V13H5V9ZM1 9C1 7.3 2.3 6 4 6V13H1V9ZM27 18H1V14H27V18ZM27 13H24V6C25.7 6 27 7.3 27 9V13ZM11 5H17V4H11V5Z" fill="#72BF44"/>
</svg>
